X:660
T:Si la nieve resbala (CT 099)
R:Tonada
C:Tradicional
S:Msica Tradicional Asturiana, (C) Tello & Tito. Asturies, 2001.
S:http://pagina.de/MusTradAst <telloytito@asturies.org>
N:Cancin de empleo indeterminado, transcrita en Uviu.
A:Asturies
O:Uviu
Z:Cancioneru de Torner 099
M:6/8
L:1/8
Q:3/8=88
K:Gm
d2d dec|d2d dec|d2d- d2z|d2d dec|
d2d dec|d2d- dBA|G3/2A/2B cBc|d2d- dBA|G3- G2z||
W:Si la nieve resbala
W:por el sendero,
W:ya no ver a la nia
W:que yo ms quiero.
W:
W:Ai, amor! Si la nieve resbala,
W:qu har yo!
W:
W:Si la nieve resbala,
W:qu harn las rosas
W:Ya se van deshojando
W:las ms hermosas.
W:
W:Ai, amor! Si la nieve resbala,
W:qu har yo!
W:
